themes/vice/icons/notifications.svg

<svg xmlns="http://www.w3.org/2000/svg" width="16" height="16">
    <path style="fill:#dfdfdf" d="M8 1c.55 0 1 .45 1 1 0 .03 0 .07-.01.1C11.28 2.56 13 4.57 13 7v4.5l2 2v.5H1v-.5l2-2V7c0-2.43 1.72-4.44 4.01-4.9C7 2.07 7 2.03 7 2c0-.55.45-1 1-1zm1.73 14c-.36.62-1.02 1-1.73 1s-1.37-.38-1.73-1z"/>
</svg>

<svg xmlns="http://www.w3.org/2000/svg" width="16" height="16" version="1.1">
 <path style="fill:#dfdfdf" d="M 8,1 C 8.55,1 9,1.45 9,2 9,2.03 9,2.07 8.99,2.1 11.28,2.56 13,4.57 13,7 V 9 11.5 L 15,13.5 V 14 H 13 3 1 V 13.5 L 3,11.5 V 7 C 3,4.57 4.72,2.56 7.01,2.1 7,2.07 7,2.03 7,2 7,1.45 7.45,1 8,1 Z M 9.73,15 C 9.37,15.62 8.71,16 8,16 7.29,16 6.63,15.62 6.27,15 Z"/>
</svg>
